src/objects/clothing/1F9E2.svg

<svg id="emoji" viewBox="0 0 72 72" xmlns="http://www.w3.org/2000/svg">
  <g id="grid">
    <path fill="#b3b3b3" d="M68,4V68H4V4H68m4-4H0V72H72V0Z"/>
    <path fill="none" stroke="#00a5ff" stroke-miterlimit="10" stroke-width="0.1" d="M12.923,10.9583H59.0769A1.9231,1.9231,0,0,1,61,12.8814V59.0352a1.9231,1.9231,0,0,1-1.9231,1.9231H12.9231A1.9231,1.9231,0,0,1,11,59.0352V12.8813A1.923,1.923,0,0,1,12.923,10.9583Z"/>
    <rect x="16" y="4" rx="2.2537" width="40" height="64" fill="none" stroke="#00a5ff" stroke-miterlimit="10" stroke-width="0.1"/>
    <rect x="16" y="4" rx="2.2537" width="40" height="64" transform="translate(72) rotate(90)" fill="none" stroke="#00a5ff" stroke-miterlimit="10" stroke-width="0.1"/>
    <circle cx="36" cy="36" r="29" fill="none" stroke="#00a5ff" stroke-miterlimit="10" stroke-width="0.1"/>
  </g>
  <g id="color">
    <g id="_">
      <path fill="#92d3f5" d="M39.506,26c11.2749.0047,20.4967,7.53,20.4929,16.7233l-.0035,8.3573-.0017,3.928-40.9995-.0172.0016-3.9279.0035-8.3574C19.0031,33.5132,28.2312,25.9955,39.506,26"/>
      <path fill="#92d3f5" d="M39.506,26c11.2749.0047,20.4967,7.53,20.4929,16.7233l-.0035,8.3573-.0017,3.928-40.9995-.0172.0016-3.9279.0035-8.3574C19.0031,33.5132,28.2312,25.9955,39.506,26"/>
    </g>
    <path fill="#61b2e4" d="M48.0311,28.11A22.5241,22.5241,0,0,0,41,26.9967s11.1353,7.4817,7.0329,27.0024l11.9617.0051.0015-3.657L60,42.5663c.0027-6.528-4.97-12.1529-11.9686-14.4566"/>
  </g>
  <g id="line">
    <g id="_2">
      <line x1="6" x2="59.6897" y1="54.9629" y2="54.9629" fill="none" stroke="#000000" stroke-linecap="round" stroke-linejoin="round" stroke-width="2"/>
    </g>
    <path stroke="#000" stroke-linecap="round" stroke-linejoin="round" stroke-width="2" d="M37.374,25.7419a2.0191,2.0191,0,0,1,4,0"/>
    <g>
      <path fill="none" stroke="#000" stroke-linecap="round" stroke-linejoin="round" stroke-width="2" d="M19.79,51V42.6047c0-9.2348,8.9417-16.79,19.8706-16.79"/>
      <path fill="none" stroke="#000" stroke-linecap="round" stroke-linejoin="round" stroke-width="2" d="M39.0874,25.8142c10.9288,0,19.8706,7.5557,19.8706,16.7905V51"/>
    </g>
  </g>
</svg>

<svg viewBox="0 0 72 72" xmlns="http://www.w3.org/2000/svg"><path fill="#b3b3b3" d="M68 4v64H4V4h64m4-4H0v72h72V0z"/><path fill="none" stroke="#00a5ff" stroke-miterlimit="10" stroke-width=".1" d="M12.923 10.958h46.154A1.923 1.923 0 0161 12.881v46.154a1.923 1.923 0 01-1.923 1.923H12.923A1.923 1.923 0 0111 59.035V12.881a1.923 1.923 0 011.923-1.923z"/><rect x="16" y="4" rx="2.254" width="40" height="64" fill="none" stroke="#00a5ff" stroke-miterlimit="10" stroke-width=".1"/><rect x="16" y="4" rx="2.254" width="40" height="64" transform="rotate(90 36 36)" fill="none" stroke="#00a5ff" stroke-miterlimit="10" stroke-width=".1"/><circle cx="36" cy="36" r="29" fill="none" stroke="#00a5ff" stroke-miterlimit="10" stroke-width=".1"/><g stroke-linecap="round" stroke-miterlimit="10" stroke-width="6" stroke="#fff" fill="none" stroke-linejoin="round"><path d="M6 54.963h53.69M37.374 25.742a2.02 2.02 0 014 0M19.79 51v-8.395c0-9.235 8.942-16.79 19.87-16.79"/><path d="M39.087 25.814c10.93 0 19.871 7.556 19.871 16.79V51"/></g><g fill="#92d3f5"><path d="M39.506 26c11.275.005 20.497 7.53 20.493 16.723l-.004 8.358-.001 3.928-41-.018.002-3.928.003-8.357c.004-9.193 9.232-16.71 20.507-16.706"/><path d="M39.506 26c11.275.005 20.497 7.53 20.493 16.723l-.004 8.358-.001 3.928-41-.018.002-3.928.003-8.357c.004-9.193 9.232-16.71 20.507-16.706"/></g><path fill="#61b2e4" d="M48.031 28.11A22.524 22.524 0 0041 26.997s11.135 7.481 7.033 27.002l11.962.005.001-3.657.004-7.78c.003-6.529-4.97-12.154-11.969-14.457"/><g stroke="#000" stroke-linecap="round" stroke-linejoin="round" stroke-width="2"><path fill="none" d="M6 54.963h53.69"/><path d="M37.374 25.742a2.02 2.02 0 014 0"/><g fill="none"><path d="M19.79 51v-8.395c0-9.235 8.942-16.79 19.87-16.79"/><path d="M39.087 25.814c10.93 0 19.871 7.556 19.871 16.79V51"/></g></g></svg>
